!!!COM: Olivier (Eugène Prosper Charles) Messiaen
!!!OTL: [T751_Mes-20/122/1-9]
**kern	**dynam	**kern	**dynam
*grp:A	*grp:A	*grp:B	*grp:B
*part1	*	*part1	*part1
*staff2	*	*staff1	*staff1
*I"Piano	*	*	*
*I'Pno.	*	*	*
!!pagebreak:original
*clefF4	*	*clefF4	*
*k[]	*	*k[]	*
*C:	*	*C:	*
*M2/4	*	*M2/4	*
*8ba	*	*	*
=1	=1	=1	=1
*ped	*	*	*
!	!	!LO:TX:t=Modéré ([quarter]=72)	!
!	!	!LO:TX:b:t=(laissez résonner)	!
!	!	!	!LO:DY:b
!LO:TX:b:t=(comme un Tam-Tam) (Valeurs progressivement accélérées)	!LO:DY:a	!	!
[2AAAA^ [2DDD#X [2GGG#X	sfff	8B-XL 8d#X 8e	mf
.	.	8c#X 8gn 8a	.
.	.	8B- 8d# 8e	.
.	.	8EJ 8A 8B-X	.
=2	=2	=2	=2
2AAAA] 2DDD#X] 2GGG#X]	.	8B-XL 8d#X 8e	.
.	.	8c#X 8gn 8a	.
.	.	8B- 8d# 8e	.
.	.	8EJ 8A 8B-X	.
=3	=3	=3	=3
!	!LO:DY:a	!	!
[2AAAA [2DDD#X [2GGG#X	ff	8B-XL 8d#X 8e	mf
.	.	8c#X 8gn 8a	.
.	.	8B- 8d# 8e	.
.	.	8EJ 8A 8B-X	.
=4	=4	=4	=4
4AAAA_ 4DDD#X_ 4GGG#X_	.	8B-XL 8d#X 8e	.
.	.	8c#X 8gn 8a	.
8.AAAAL] 8.DDD#] 8.GGG#]	.	8B- 8d# 8e	.
.	.	8EJ 8A 8B-X	.
[16AAAAJk [16DDD#X [16GGG#X	.	.	.
=5	=5	=5	=5
2AAAA_ 2DDD#_ 2GGG#_	.	8B-XL 8d#X 8e	.
.	.	8c#X 8gn 8a	.
.	.	8B- 8d# 8e	.
.	.	8EJ 8A 8B-X	.
!!linebreak:original
=6	=6	=6	=6
4AAAA_ 4DDD#_ 4GGG#_	.	8B-XL 8d#X 8e	.
.	.	8c#X 8gn 8a	.
16AAAAKL] 16DDD#] 16GGG#]	.	8B- 8d# 8e	.
[8.AAAAJ [8.DDD#X [8.GGG#X	.	.	.
.	.	8EJ 8A 8B-X	.
=7	=7	=7	=7
2AAAA_ 2DDD#X_ 2GGG#X_	.	8B-XL 8d#X 8e	.
.	.	8c#X 8gn 8a	.
.	.	8B- 8d# 8e	.
.	.	8EJ 8A 8B-X	.
=8	=8	=8	=8
8AAAA] 8DDD#X] 8GGG#X]	.	8B-XL 8d#X 8e	>
[4.AAAA [4.DDD#X [4.GGG#X	>	8c#X 8gn 8a	.
.	.	8B- 8d# 8e	.
.	.	8EJ 8A 8B-X	.
=9	=9	=9	=9
4.AAAA] 4.DDD#X] 4.GGG#X]	.	8B-XL 8d#X 8e	.
.	.	8c#X 8gn 8a	.
.	.	8B- 8d# 8e	.
[8AAAA [8DDD#X [8GGG#X	.	8EJ 8A 8B-X	.
*X8ba	*	*	*
=||	=||	=||	=||
*-	*-	*-	*-
!!!system-decoration: [({(s1,s2)})]
